X: 29213
T: New Demesne, The
R: reel
M: 4/4
K: Dmajor
||D2 ~D2 AD FD|Ad de fd AF|D2 ~D2 AD FD|(3Bcd AF GF EF|D2 ~D2 AD FD|Ad de fd AF|DE FG AG AB|cA GE D4||
|:fe dc Ad df|ed cd ef ge|fe dc Ad df|ea ag ed dg|
(3fgf dg (3fgf df|(3ege cg (3ege cg|df eg (3fga gb|afgefd d2:|
|:fg ag fd d2|ef gf e=c ~c2|1 fg ag fd dB|=cA GE ED D2:|2 df eg (3fga gb|af ge fd d2:|
|:(3fgf dg (3fgf df|(3ege cf (3ege cg|(3fgf dg (3fgf dg|ea ag ed dg|
(3fgf df df df|(3ege ce ce ce|df eg (3fga gb|af ge fd d2:|

